X: 0
T: A Virgin Most Pure
Z: English Traditional
Z: Copyright © 2006 by Douglas D. Anderson
Z: Released To The Public Domain
L: 1/4
M: 3/4
Q: 1/4=95
V: P1 name="Church Organ"
%%MIDI program 1 19
V: P2 name="French Horn"
%%MIDI program 2 19
V: P3 name="Tuba"
%%MIDI program 3 19
K: F
[V: P1]  (A/B/) | c d (c/B/) | (A G) c/ A/ | (B/c/) d c | F2 (A/B/) | c d (c/B/) | (A G) (c/A/) | (B/c/) d c | F2 [(A,/(F/][B,/)F/)G/)] | [FA] [EG] c | (B/A/) G d | c (f/e/) d | c2 (A/B/) | c d (c/B/) | A G (c/A/) | (B/c/) d c | F2 [(A,/(F/][B,/)F/)G/)] | [FA] [EG] c | (B/A/) G d | c (f/e/) d | c2 (A/B/) | c d (c/B/) | A G (c/A/) | (B/c/) d B | F2|]
w: A_ Vir- gin most_ pure,_ as the Pro-_ phets do tell, Hath_ brought forth a_ Babe,_ as_ it_ hath be- fel, To____ be_ our_ Re- deem_ er from Death, Hell,_ and Sin, Which_ A- dam's trans-_ gress ion hath_ wrapt_ us all in: Re-____ joice,_ and_ be mer-_ ry, set sor- row_ a- side Christ_ Je- sus our_ Sa- viour was_ born_ on this tide.
[V: P2]  F | F F F | F E F | F F E | A,2 F | F F F | F E F | F F E | A,2z | C2 [CF] | [DF] E [FB] | F [FA] [F=B] | E C F | F F F | F E F | F F E | A,2z | C2 [CF] | [DF] E [FB] | F [FA] [F=B] | E C F | F F F | F E F | F F E | A,2|]
[V: P3]  (F,/G,/) | A, B, (A,/G,/) | C C, A,, | D, G,, C, | F,, F, (F,,/G,,/) | A,, B,, (A,,/G,,/) | C,2 A,, | D, G,, C, | F,, F, D, | C, B,, A,, | G,, C, B,, | A,, D,, G,, | C,, C, (F,,/G,,/) | A,, B,, (A,,/G,,/) | C,2 A,, | D, G,, C, | F,, F, D, | C, B,, A,, | G,, C, B,, | A,, D,, G,, | C,, C, (F,,/G,,/) | A,, B,, (A,,/G,,/) | C,2 A,, | D, G,, C, | F,, F,|]

